_includes/icons/color-wi-fi.svg

<svg fill="#666" height="50" viewBox="0 0 48 48" width="50" xmlns="http://www.w3.org/2000/svg"><g fill="#2196f3"><path d="m27 40c0 1.65625-1.34375 3-3 3s-3-1.34375-3-3 1.34375-3 3-3 3 1.34375 3 3z"/><path d="m2 18.898438 3.550781 3.550781c10.277344-9.910156 26.621094-9.910156 36.898438 0l3.550781-3.550781c-12.238281-11.867188-31.761719-11.867188-44 0z"/><path d="m8.390625 25.289063 3.558594 3.5625c6.753906-6.382813 17.351562-6.382813 24.105469 0l3.558593-3.5625c-8.71875-8.339844-22.507812-8.339844-31.222656 0z"/><path d="m14.789063 31.691406 3.550781 3.550782c3.21875-2.867188 8.101562-2.863282 11.324219 0l3.546875-3.550782c-5.1875-4.820312-13.238282-4.816406-18.421875 0z"/></g></svg>

<svg xmlns="http://www.w3.org/2000/svg" viewBox="0 0 48 48" width="50" height="50" fill="#666"><g fill="#2196f3"><path d="M 27 40 C 27 41.65625 25.65625 43 24 43 C 22.34375 43 21 41.65625 21 40 C 21 38.34375 22.34375 37 24 37 C 25.65625 37 27 38.34375 27 40 Z"/><path d="M 2 18.898438 L 5.550781 22.449219 C 15.828125 12.539063 32.171875 12.539063 42.449219 22.449219 L 46 18.898438 C 33.761719 7.03125 14.238281 7.03125 2 18.898438 Z"/><path d="M 8.390625 25.289063 L 11.949219 28.851563 C 18.703125 22.46875 29.300781 22.46875 36.054688 28.851563 L 39.613281 25.289063 C 30.894531 16.949219 17.105469 16.949219 8.390625 25.289063 Z"/><path d="M 14.789063 31.691406 L 18.339844 35.242188 C 21.558594 32.375 26.441406 32.378906 29.664063 35.242188 L 33.210938 31.691406 C 28.023438 26.871094 19.972656 26.875 14.789063 31.691406 Z"/></g></svg>
